icons/evolvere-blue-folders-flat-vivid-dark-fallback/apps/64/system-software-update.svg

<?xml version="1.0" encoding="UTF-8" standalone="no"?>
<!-- Created with Inkscape (http://www.inkscape.org/) -->

<svg
   xmlns:dc="http://purl.org/dc/elements/1.1/"
   xmlns:cc="http://creativecommons.org/ns#"
   xmlns:rdf="http://www.w3.org/1999/02/22-rdf-syntax-ns#"
   xmlns:svg="http://www.w3.org/2000/svg"
   xmlns="http://www.w3.org/2000/svg"
   xmlns:sodipodi="http://sodipodi.sourceforge.net/DTD/sodipodi-0.dtd"
   xmlns:inkscape="http://www.inkscape.org/namespaces/inkscape"
   width="64"
   height="64"
   id="svg13094"
   version="1.1"
   inkscape:version="0.91+devel r"
   sodipodi:docname="system-software-update.svg">
  <sodipodi:namedview
     id="base"
     pagecolor="#ffffff"
     bordercolor="#666666"
     borderopacity="1.0"
     inkscape:pageopacity="0"
     inkscape:pageshadow="2"
     inkscape:zoom="11.313709"
     inkscape:cx="30.414812"
     inkscape:cy="34.221193"
     inkscape:document-units="px"
     inkscape:current-layer="svg13094"
     showgrid="true"
     inkscape:snap-bbox="true"
     inkscape:bbox-paths="true"
     inkscape:bbox-nodes="true"
     inkscape:snap-bbox-edge-midpoints="true"
     inkscape:snap-bbox-midpoints="true"
     inkscape:object-paths="true"
     inkscape:snap-intersection-paths="true"
     inkscape:object-nodes="true"
     inkscape:snap-smooth-nodes="true"
     inkscape:snap-midpoints="true"
     inkscape:snap-object-midpoints="true"
     inkscape:snap-center="true"
     showguides="true"
     inkscape:guide-bbox="true"
     inkscape:window-width="1920"
     inkscape:window-height="1023"
     inkscape:window-x="-10"
     inkscape:window-y="35"
     inkscape:window-maximized="1"
     inkscape:snap-global="true"
     fit-margin-top="0"
     fit-margin-left="0"
     fit-margin-right="0"
     fit-margin-bottom="0"
     showborder="true"
     inkscape:showpageshadow="false"
     inkscape:snap-page="true">
    <inkscape:grid
       type="xygrid"
       id="grid3075"
       empspacing="5"
       visible="true"
       enabled="true"
       snapvisiblegridlinesonly="true"
       originx="0px"
       originy="18px" />
  </sodipodi:namedview>
  <defs
     id="defs13096" />
  <metadata
     id="metadata13099">
    <rdf:RDF>
      <cc:Work
         rdf:about="">
        <dc:format>image/svg+xml</dc:format>
        <dc:type
           rdf:resource="http://purl.org/dc/dcmitype/StillImage" />
        <dc:title></dc:title>
      </cc:Work>
    </rdf:RDF>
  </metadata>
  <path
     style="color:#000000;fill:#6abb2d;fill-opacity:1;fill-rule:nonzero;stroke:none;stroke-width:2.28571415;marker:none;visibility:visible;display:inline;overflow:visible;enable-background:accumulate"
     d="M 0 4 L 0 34 L 0 62 L 2 64 L 32 64 L 62 64 L 64 62 L 64 34 L 64 4 L 32 4 L 0 4 z "
     id="path3056" />
  <path
     style="color:#000000;fill:#9aff45;fill-opacity:1;fill-rule:nonzero;stroke:none;stroke-width:2.28571415;marker:none;visibility:visible;display:inline;overflow:visible;enable-background:accumulate"
     d="M 2 0 L 0 1 L 0 4 L 32 4 L 64 4 L 64 1 L 62 0 L 32 0 L 2 0 z "
     id="path3029" />
  <path
     style="fill:#b7ff7b;fill-opacity:1;fill-rule:nonzero"
     d="M 0,3 0,6 2,4 Z"
     id="path4298"
     inkscape:connector-curvature="0"
     sodipodi:nodetypes="cccc" />
  <path
     d="M 64,6 62,4 64,3 z"
     id="path3028"
     style="fill:#81db39;fill-opacity:1"
     inkscape:connector-curvature="0" />
  <g
     id="g3043"
     inkscape:export-filename="folder.png"
     inkscape:export-xdpi="90"
     inkscape:export-ydpi="90"
     transform="translate(-0.625,0.082283)" />
  <g
     id="scalable"
     transform="matrix(1.0385892,0,0,1.0385892,1214.7222,1878.8121)"
     inkscape:label="#g3701"
     style="fill:#ffffff" />
  <path
     style="fill:#1d4c08;fill-opacity:0.74597496;fill-rule:nonzero;stroke:none"
     d="m 32,12.999634 c -5.788684,-3e-4 -11.04605,2.371275 -14.849571,6.150495 l -1.371343,1.371344 -4.371439,-4.114031 0,12.728204 12.728504,0 -4.114331,-4.371439 1.371344,-1.371343 C 24.088149,20.655577 27.852668,18.999524 32,18.999524 c 8.284463,0 15.000476,6.716013 15.000476,15.000476 l 5.99989,0 C 53.000666,22.401632 43.598368,12.999334 32,12.999634 z M 10.999634,34 c -3e-4,11.598368 9.401998,21.000666 21.000366,21.000366 5.788684,3e-4 11.04635,-2.371575 14.849871,-6.150795 l 1.371343,-1.371344 4.371439,4.114031 0,-12.728504 -12.728204,0 4.114031,4.371739 -1.371344,1.371343 C 39.912451,47.343823 36.147332,49.000476 32,49.000476 23.715537,49.000476 16.999524,42.284463 16.999524,34 z"
     id="path3793"
     inkscape:connector-curvature="0"
     sodipodi:nodetypes="scccccccsccscscccccccscc" />
  <path
     style="fill:#1d4c08;fill-opacity:0.13416816;fill-rule:nonzero;stroke:none;opacity:1;stroke-width:1;stroke-linecap:butt;stroke-linejoin:miter;stroke-miterlimit:4;stroke-dasharray:none;stroke-dashoffset:0;stroke-opacity:1"
     d="m 32,13 c -5.788684,-3e-4 -11.040229,2.37703 -14.84375,6.15625 l -1.375,1.375 -4.375,-4.125 0,12.71875 1,0 0,-11.71875 4.375,4.125 1.375,-1.375 C 21.959771,16.37703 27.211316,13.9997 33,14 38.546837,13.999857 43.558481,16.174853 47.3125,19.6875 43.480246,15.591912 38.051531,12.999843 32,13 z M 43.0625,23.9375 C 45.487901,26.602289 47,30.112867 47,34 l 0.96875,0 C 47.704417,30.007591 45.845331,26.470339 43.0625,23.9375 z M 11,34 c -1.56e-4,6.051531 2.591912,11.480246 6.6875,15.3125 C 14.174853,45.558481 11.999857,40.546837 12,35 l 5.03125,0 C 17.00924,34.667562 17,34.33801 17,34 l -6,0 z m 28.875,4.875 4.09375,4.375 -1.375,1.34375 C 39.899065,47.330737 36.147332,49 32,49 28.112867,49 24.602289,47.487901 21.9375,45.0625 24.681242,48.07705 28.60267,50 33,50 c 4.147332,0 7.899065,-1.669263 10.59375,-4.40625 l 1.375,-1.34375 -4.09375,-4.375 11.71875,0 0,-1 -12.71875,0 z"
     id="path3771"
     inkscape:connector-curvature="0" />
</svg>

<svg xmlns="http://www.w3.org/2000/svg" viewBox="0 0 64 64"><g color="#000"><path d="m0 4v30 28l2 2h30 30l2-2v-28-30h-32-32" fill="#6abb2d"/><path d="m2 0l-2 1v3h32 32v-3l-2-1h-30-30" fill="#9aff45"/></g><path d="m0 3v3l2-2" fill="#b7ff7b"/><path d="m64 6l-2-2 2-1z" fill="#81db39"/><g fill="#1d4c08"><path d="m32 13c-5.789 0-11.05 2.371-14.85 6.15l-1.371 1.371-4.371-4.114v12.728h12.729l-4.114-4.371 1.371-1.371c2.695-2.737 6.46-4.393 10.607-4.393 8.284 0 15 6.716 15 15h6c0-11.598-9.402-21-21-21m-21 21c0 11.598 9.402 21 21 21 5.789 0 11.05-2.372 14.85-6.151l1.371-1.371 4.371 4.114v-12.729h-12.728l4.114 4.372-1.371 1.371c-2.695 2.737-6.46 4.394-10.607 4.394-8.284 0-15-6.716-15-15z" fill-opacity=".746"/><path d="m32 13c-5.789 0-11.04 2.377-14.844 6.156l-1.375 1.375-4.375-4.125v12.719h1v-11.719l4.375 4.125 1.375-1.375c3.804-3.779 9.06-6.157 14.844-6.156 5.547 0 10.558 2.175 14.313 5.688-3.832-4.096-9.261-6.688-15.313-6.688m11.06 10.938c2.425 2.665 3.938 6.175 3.938 10.06h.969c-.264-3.992-2.123-7.53-4.906-10.06m-32.06 10.06c0 6.05 2.592 11.48 6.688 15.313-3.513-3.754-5.688-8.766-5.688-14.313h5.03c-.022-.332-.031-.662-.031-1h-6m28.875 4.875l4.094 4.375-1.375 1.344c-2.695 2.737-6.446 4.406-10.594 4.406-3.887 0-7.398-1.512-10.06-3.938 2.744 3.01 6.665 4.938 11.06 4.938 4.147 0 7.899-1.669 10.594-4.406l1.375-1.344-4.094-4.375h11.719v-1h-12.719" fill-opacity=".134"/></g></svg>
